X:30
T: Úgy sír, úgy kesereg Seprődi Borbála
O: Forrófalva (Bákó), 1932
Q: "Parlando" 1/4=116
L:1/4
K:C
d/d/c/B/ c>d | A/A/B/c/ B<A | 
Hd c/ B/A/ G B | A/A/B/A/ G/ G Hz/ |
c B/ A/G/ B<A | G/(F//E//)G/F/ E<D | 
(AB) A/ G/(F//E//) F/ G | D/D/E/F/ E D | 

